assets/icons/explore.svg

<svg width="20" height="20" viewBox="0 0 20 20" fill="none" xmlns="http://www.w3.org/2000/svg">
<path d="M7.25689 13.1964L11.0444 11.976C11.2726 11.899 11.4655 11.7813 11.6231 11.6231C11.7807 11.4649 11.8984 11.272 11.976 11.0444L13.2 7.25244C13.2421 7.11496 13.2107 6.99467 13.1058 6.89156C13.0003 6.78844 12.8797 6.75881 12.744 6.80267L8.95556 8.024C8.728 8.10104 8.53511 8.21867 8.37689 8.37689C8.21926 8.53511 8.10163 8.728 8.024 8.95556L6.8 12.7476C6.75793 12.885 6.78933 13.0053 6.89422 13.1084C6.9997 13.2116 7.1203 13.2412 7.256 13.1973M9.99556 10.9911C9.71941 10.9911 9.48593 10.8945 9.29511 10.7013C9.1037 10.5076 9.008 10.2723 9.008 9.99556C9.008 9.71941 9.10489 9.48593 9.29867 9.29511C9.49244 9.1037 9.72741 9.008 10.0036 9.008C10.2803 9.008 10.5144 9.10489 10.7058 9.29867C10.8966 9.49244 10.992 9.72741 10.992 10.0036C10.992 10.2803 10.8951 10.5144 10.7013 10.7058C10.5076 10.896 10.2726 10.9911 9.99644 10.9911M10.0027 18C8.8963 18 7.8563 17.7902 6.88267 17.3707C5.90904 16.9505 5.06193 16.3804 4.34133 15.6604C3.62074 14.9404 3.05037 14.0942 2.63022 13.1218C2.21007 12.1493 2 11.1096 2 10.0027C2 8.8957 2.21007 7.8557 2.63022 6.88267C3.04978 5.90904 3.61896 5.06193 4.33778 4.34133C5.05659 3.62074 5.90311 3.05037 6.87733 2.63022C7.85156 2.21007 8.89156 2 9.99733 2C11.1031 2 12.1431 2.21007 13.1173 2.63022C14.091 3.04978 14.9381 3.61926 15.6587 4.33867C16.3793 5.05807 16.9496 5.90459 17.3698 6.87822C17.7899 7.85185 18 8.89156 18 9.99733C18 11.1031 17.7902 12.1431 17.3707 13.1173C16.9511 14.0916 16.381 14.9387 15.6604 15.6587C14.9399 16.3787 14.0936 16.949 13.1218 17.3698C12.1499 17.7905 11.1102 18.0006 10.0027 18ZM10 17.1111C11.9816 17.1111 13.6622 16.4213 15.0418 15.0418C16.4213 13.6622 17.1111 11.9816 17.1111 10C17.1111 8.01837 16.4213 6.33778 15.0418 4.95822C13.6622 3.57867 11.9816 2.88889 10 2.88889C8.01837 2.88889 6.33778 3.57867 4.95822 4.95822C3.57867 6.33778 2.88889 8.01837 2.88889 10C2.88889 11.9816 3.57867 13.6622 4.95822 15.0418C6.33778 16.4213 8.01837 17.1111 10 17.1111Z" fill="currentColor"/>
</svg>

<svg xmlns="http://www.w3.org/2000/svg" width="20" height="20" fill="none" viewBox="0 0 20 20"><path fill="currentColor" d="m7.257 13.196 3.787-1.22q.343-.116.58-.353.235-.237.352-.579L13.2 7.252a.34.34 0 0 0-.094-.36.34.34 0 0 0-.362-.09L8.956 8.025q-.341.116-.58.353a1.5 1.5 0 0 0-.352.579L6.8 12.748a.34.34 0 0 0 .094.36.34.34 0 0 0 .362.09m2.74-2.207a.95.95 0 0 1-.7-.29.97.97 0 0 1-.288-.705q0-.415.29-.7a.97.97 0 0 1 .706-.288.95.95 0 0 1 .702.29q.285.292.286.706a.95.95 0 0 1-.29.702.97.97 0 0 1-.706.285M10.003 18a7.8 7.8 0 0 1-3.12-.63 8.1 8.1 0 0 1-2.542-1.71 8.1 8.1 0 0 1-1.71-2.538A7.8 7.8 0 0 1 2 10.002q0-1.659.63-3.12.63-1.46 1.708-2.54a8 8 0 0 1 2.54-1.712A7.8 7.8 0 0 1 9.997 2q1.658 0 3.12.63 1.46.63 2.54 1.709 1.082 1.08 1.712 2.54T18 9.996q0 1.659-.63 3.12a8.1 8.1 0 0 1-1.71 2.542 8.1 8.1 0 0 1-2.538 1.71q-1.458.633-3.12.631M10 17.111q2.972 0 5.042-2.07T17.112 10t-2.07-5.042T10 2.888t-5.042 2.07T2.888 10t2.07 5.042T10 17.112"/></svg>
